X: 1
T: My Gentle Milkmaid
T: Mo Chuachag Laghach
R: reel
Z: 2014 John Chambers <jc:trillian.mit.edu>
S: Page from Concord Slow Scottish Session collection
M: C|
L: 1/8
K: Bm
A |:\
"Bm"B2d2 "A"cBBc | "Bm"B2d2 "F#m"feef |\
"Bm"B2d2 "A"cBBc | "A"cAAc "F#m"feef :|
|:\
"D"d2(fe) "G"dBAB | "D"d2(ad) "F#"feef |\
"D"d2(fe) "G"dBBd | "A"cAAA "F#m"feef :|
